**kern	**kern	**dynam
*part1	*part1	*part1
*staff2	*staff1	*
*I"Piano	*	*
*clefF4	*clefG2	*
*k[b-]	*k[b-]	*
*M4/4	*M4/4	*
*met(c)	*met(c)	*
=1	=1	=1
8FL	4A	p
8EJ	.	.
=!|:	=!|:	=!|:
4D	4F 4d	<
4BB-	4G 4e	.
4AA	4A 4f	.
4FF	4c 4a	.
=	=	=
4EE	2B- 2g	[ >
4GG	.	.
4BB-	4G 4e	.
4FF	4A 4f	] <
=	=	=
*^	*	*
4GG	2rAyy	4F 4B- 4d	[
4GG	.	4F 4B- 4d	>
4E	4AA	4A 4c	.
4D 4F 4B-	4BB-	4ryy	.
*v	*v	*	*
=	=	=
2AA	2C#X< 2E< 2A<	.
4r	4r	]
4E	4A	.
=	=	=
4D	4F 4A 4d	<
4C	4G 4c 4e	.
4AA	4A 4c 4f	.
4FF	4c 4f 4a	.
=	=	=
4DD	2c 2f 2cc	[
4AA	.	.
4F	4c 4a	>
4D	4A 4f	.
=	=	=
*-	*-	*-
!!!system-decoration: {(s1,s2)}
!!!RDF**kern: < = below
